;FLAVOR:Marlin
M117 Time Left 0h08m11s
;TIME:491
;Filament used: 0.111168m
;Layer height: 0.2
;MINX:104.7
;MINY:108.7
;MINZ:0.2
;MAXX:130.3
;MAXY:126.3
;MAXZ:2.8
;POSTPROCESSED
;Generated with Cura_SteamEngine 4.7.1
M82 ;absolute extrusion mode
M201 X500.00 Y500.00 Z100.00 E5000.00 ;Setup machine max acceleration
M203 X500.00 Y500.00 Z10.00 E50.00 ;Setup machine max feedrate
M204 P500.00 R1000.00 T500.00 ;Setup Print/Retract/Travel acceleration
M205 X8.00 Y8.00 Z0.40 E5.00 ;Setup Jerk
M220 S100 ;Reset Feedrate
M221 S100 ;Reset Flowrate


M140 S60 ;Start heating bed
M190 S60 ;Wait for bed to reach temp before proceeding
M104 S225 ;Start heating extruder
M109 S225 ;Wait for extruder to reach temp before proceeding

M300 ;Audio slert
M0 Insert Z Switch ;Pause with message for user
G28 ;Home all axes
M420 S1 ;Enable Mesh Bed Levelling
G1 Y-235 Z40 F1500 ;Move Heat Bed back and lift nozzle

M300 ;Audio slert
M0 Remove Z Switch ;Pause with message for user
G1 Z15 F100 ;Slowly lower the nozzle to give you a headsup that printing is starting



G92 E0 ;Reset Extruder
G1 Z2.0 F3000 ;Move Z Axis up
G1 X10.1 Y20 Z0.28 F5000.0 ;Move to start position
G1 X10.1 Y200.0 Z0.28 F1500.0 E15 ;Draw the first line
G1 X10.4 Y200.0 Z0.28 F5000.0 ;Move to side a little
G1 X10.4 Y20 Z0.28 F1500.0 E30 ;Draw the second line
G92 E0 ;Reset Extruder
G1 Z2.0 F3000 ;Move Z Axis up
G92 E0
G92 E0
G1 F3000 E-3
;LAYER_COUNT:14
;LAYER:0
M107
M204 S500
M205 X8 Y8
G0 F18000 X106.281 Y110.164 Z0.2
;TYPE:SKIRT
G1 F3000 E0
G1 F300 X106.756 Y109.747 E0.02102
G1 X107.279 Y109.392 E0.04205
G1 X107.843 Y109.106 E0.06308
G1 X108.438 Y108.894 E0.08409
G1 X109.056 Y108.758 E0.10513
G1 X109.817 Y108.7 E0.13052
G1 X125.183 Y108.7 E0.64159
G1 X125.814 Y108.74 E0.66262
G1 X126.435 Y108.859 E0.68365
G1 X127.035 Y109.056 E0.70466
G1 X127.607 Y109.327 E0.72571
G1 X128.139 Y109.667 E0.74671
G1 X128.719 Y110.164 E0.77211
G1 X128.836 Y110.281 E0.77762
G1 X129.253 Y110.756 E0.79864
G1 X129.608 Y111.279 E0.81966
G1 X129.894 Y111.843 E0.8407
G1 X130.106 Y112.438 E0.8617
G1 X130.242 Y113.056 E0.88275
G1 X130.3 Y113.817 E0.90814
G1 X130.3 Y121.183 E1.15313
G1 X130.26 Y121.814 E1.17416
G1 X130.141 Y122.435 E1.19519
G1 X129.944 Y123.035 E1.21619
G1 X129.673 Y123.607 E1.23725
G1 X129.333 Y124.139 E1.25824
G1 X128.836 Y124.719 E1.28365
G1 X128.719 Y124.836 E1.28915
G1 X128.244 Y125.253 E1.31018
G1 X127.721 Y125.608 E1.3312
G1 X127.157 Y125.894 E1.35223
G1 X126.562 Y126.106 E1.37324
G1 X125.944 Y126.242 E1.39429
G1 X125.183 Y126.3 E1.41967
G1 X109.817 Y126.3 E1.93075
G1 X109.186 Y126.26 E1.95178
G1 X108.565 Y126.141 E1.97281
G1 X107.965 Y125.944 E1.99381
G1 X107.393 Y125.673 E2.01486
G1 X106.861 Y125.333 E2.03586
G1 X106.281 Y124.836 E2.06127
G1 X106.164 Y124.719 E2.06677
G1 X105.747 Y124.244 E2.08779
G1 X105.392 Y123.721 E2.10882
G1 X105.106 Y123.157 E2.12985
G1 X104.894 Y122.562 E2.15086
G1 X104.758 Y121.944 E2.1719
G1 X104.7 Y121.183 E2.19729
G1 X104.7 Y113.817 E2.44228
G1 X104.74 Y113.186 E2.46331
G1 X104.859 Y112.565 E2.48434
G1 X105.056 Y111.965 E2.50535
G1 X105.327 Y111.393 E2.5264
G1 X105.667 Y110.861 E2.5474
G1 X106.164 Y110.281 E2.5728
G1 X106.281 Y110.164 E2.57831
G0 F18000 X106.564 Y110.447
G1 F300 X107.02 Y110.048 E2.59846
G1 X107.525 Y109.712 E2.61863
G1 X108.069 Y109.445 E2.63879
G1 X108.644 Y109.252 E2.65896
G1 X109.239 Y109.136 E2.67912
G1 X109.817 Y109.1 E2.69839
G1 X125.183 Y109.1 E3.20946
G1 X125.788 Y109.14 E3.22963
G1 X126.382 Y109.259 E3.24978
G1 X126.956 Y109.455 E3.26995
G1 X127.499 Y109.726 E3.29013
G1 X128.002 Y110.065 E3.31031
G1 X128.436 Y110.447 E3.32954
G1 X128.553 Y110.564 E3.33504
G1 X128.952 Y111.02 E3.3552
G1 X129.288 Y111.525 E3.37537
G1 X129.555 Y112.069 E3.39552
G1 X129.748 Y112.644 E3.4157
G1 X129.864 Y113.239 E3.43586
G1 X129.9 Y113.817 E3.45512
G1 X129.9 Y121.183 E3.70012
G1 X129.86 Y121.788 E3.72028
G1 X129.741 Y122.382 E3.74043
G1 X129.545 Y122.956 E3.76061
G1 X129.274 Y123.499 E3.78079
G1 X128.935 Y124.002 E3.80096
G1 X128.553 Y124.436 E3.82019
G1 X128.436 Y124.553 E3.8257
G1 X127.98 Y124.952 E3.84585
G1 X127.475 Y125.288 E3.86603
G1 X126.931 Y125.555 E3.88618
G1 X126.356 Y125.748 E3.90635
G1 X125.761 Y125.864 E3.92652
G1 X125.183 Y125.9 E3.94578
G1 X109.817 Y125.9 E4.45685
G1 X109.212 Y125.86 E4.47702
G1 X108.618 Y125.741 E4.49717
G1 X108.044 Y125.545 E4.51734
G1 X107.501 Y125.274 E4.53753
G1 X106.998 Y124.935 E4.5577
G1 X106.564 Y124.553 E4.57693
G1 X106.447 Y124.436 E4.58243
G1 X106.048 Y123.98 E4.60259
G1 X105.712 Y123.475 E4.62276
G1 X105.445 Y122.931 E4.64292
G1 X105.252 Y122.356 E4.66309
G1 X105.136 Y121.761 E4.68325
G1 X105.1 Y121.183 E4.70251
G1 X105.1 Y113.817 E4.94751
G1 X105.14 Y113.212 E4.96767
G1 X105.259 Y112.618 E4.98782
G1 X105.455 Y112.044 E5.008
G1 X105.726 Y111.501 E5.02818
G1 X106.065 Y110.998 E5.04836
G1 X106.447 Y110.564 E5.06759
G1 X106.564 Y110.447 E5.07309
G0 F18000 X106.847 Y110.73
G1 F300 X107.284 Y110.35 E5.09235
G1 X107.769 Y110.033 E5.11162
G1 X108.293 Y109.786 E5.13089
G1 X108.846 Y109.614 E5.15015
G1 X109.418 Y109.519 E5.16944
G1 X109.817 Y109.5 E5.18272
G1 X125.183 Y109.5 E5.6938
G1 X125.761 Y109.54 E5.71307
G1 X126.328 Y109.659 E5.73234
G1 X126.873 Y109.855 E5.7516
G1 X127.386 Y110.124 E5.77087
G1 X127.857 Y110.461 E5.79013
G1 X128.153 Y110.73 E5.80343
G1 X128.27 Y110.847 E5.80894
G1 X128.65 Y111.284 E5.8282
G1 X128.967 Y111.769 E5.84747
G1 X129.214 Y112.293 E5.86674
G1 X129.386 Y112.846 E5.886
G1 X129.481 Y113.418 E5.90528
G1 X129.5 Y113.817 E5.91857
G1 X129.5 Y121.183 E6.16356
G1 X129.46 Y121.761 E6.18283
G1 X129.341 Y122.328 E6.2021
G1 X129.145 Y122.873 E6.22137
G1 X128.876 Y123.386 E6.24063
G1 X128.539 Y123.857 E6.25989
G1 X128.27 Y124.153 E6.2732
G1 X128.153 Y124.27 E6.2787
G1 X127.716 Y124.65 E6.29796
G1 X127.231 Y124.967 E6.31723
G1 X126.707 Y125.214 E6.3365
G1 X126.154 Y125.386 E6.35576
G1 X125.582 Y125.481 E6.37505
G1 X125.183 Y125.5 E6.38833
G1 X109.817 Y125.5 E6.89941
G1 X109.239 Y125.46 E6.91868
G1 X108.672 Y125.341 E6.93795
G1 X108.127 Y125.145 E6.95721
G1 X107.614 Y124.876 E6.97648
G1 X107.143 Y124.539 E6.99574
G1 X106.847 Y124.27 E7.00904
G1 X106.73 Y124.153 E7.01455
G1 X106.35 Y123.716 E7.03381
G1 X106.033 Y123.231 E7.05308
G1 X105.786 Y122.707 E7.07235
G1 X105.614 Y122.154 E7.09161
G1 X105.519 Y121.582 E7.1109
G1 X105.5 Y121.183 E7.12418
G1 X105.5 Y113.817 E7.36918
G1 X105.54 Y113.239 E7.38845
G1 X105.659 Y112.672 E7.40771
G1 X105.855 Y112.127 E7.42698
G1 X106.124 Y111.614 E7.44624
G1 X106.461 Y111.143 E7.46551
G1 X106.73 Y110.847 E7.47881
G1 X106.847 Y110.73 E7.48431
G0 F18000 X107.13 Y111.013
G1 F300 X107.547 Y110.653 E7.50264
G1 X108.011 Y110.356 E7.52096
G1 X108.514 Y110.13 E7.5393
G1 X109.044 Y109.979 E7.55763
G1 X109.817 Y109.9 E7.58347
G1 X125.183 Y109.9 E8.09455
G1 X125.733 Y109.94 E8.11289
G1 X126.271 Y110.059 E8.13122
G1 X126.786 Y110.255 E8.14954
G1 X127.267 Y110.523 E8.16786
G1 X127.87 Y111.013 E8.1937
G1 X127.987 Y111.13 E8.1992
G1 X128.347 Y111.547 E8.21753
G1 X128.644 Y112.011 E8.23585
G1 X128.87 Y112.514 E8.25419
G1 X129.021 Y113.044 E8.27252
G1 X129.1 Y113.817 E8.29836
G1 X129.1 Y121.183 E8.54336
G1 X129.06 Y121.733 E8.5617
G1 X128.941 Y122.271 E8.58003
G1 X128.745 Y122.786 E8.59835
G1 X128.477 Y123.267 E8.61667
G1 X127.987 Y123.87 E8.64251
G1 X127.87 Y123.987 E8.64801
G1 X127.453 Y124.347 E8.66634
G1 X126.989 Y124.644 E8.68466
G1 X126.486 Y124.87 E8.703
G1 X125.956 Y125.021 E8.72133
G1 X125.183 Y125.1 E8.74717
G1 X109.817 Y125.1 E9.25825
G1 X109.267 Y125.06 E9.27659
G1 X108.729 Y124.941 E9.29492
G1 X108.214 Y124.745 E9.31325
G1 X107.733 Y124.477 E9.33156
G1 X107.13 Y123.987 E9.3574
G1 X107.013 Y123.87 E9.36291
G1 X106.653 Y123.453 E9.38123
G1 X106.356 Y122.989 E9.39955
G1 X106.13 Y122.486 E9.41789
G1 X105.979 Y121.956 E9.43622
G1 X105.9 Y121.183 E9.46207
G1 X105.9 Y113.817 E9.70706
G1 X105.94 Y113.267 E9.7254
G1 X106.059 Y112.729 E9.74373
G1 X106.255 Y112.214 E9.76206
G1 X106.523 Y111.733 E9.78037
G1 X107.013 Y111.13 E9.80621
G1 X107.13 Y111.013 E9.81172
G0 F18000 X107.413 Y111.296
G1 F300 X107.809 Y110.957 E9.82905
G1 X108.251 Y110.682 E9.84637
G1 X108.731 Y110.478 E9.86371
G1 X109.236 Y110.35 E9.88104
G1 X109.817 Y110.3 E9.90044
G1 X125.183 Y110.3 E10.41151
G1 X125.703 Y110.34 E10.42886
G1 X126.21 Y110.459 E10.44618
G1 X126.693 Y110.654 E10.4635
G1 X127.141 Y110.92 E10.48083
G1 X127.587 Y111.296 E10.50024
G1 X127.704 Y111.413 E10.50574
G1 X128.043 Y111.809 E10.52308
G1 X128.318 Y112.251 E10.54039
G1 X128.522 Y112.731 E10.55774
G1 X128.65 Y113.236 E10.57507
G1 X128.7 Y113.817 E10.59446
G1 X128.7 Y121.183 E10.83946
G1 X128.66 Y121.703 E10.8568
G1 X128.541 Y122.21 E10.87412
G1 X128.346 Y122.693 E10.89145
G1 X128.08 Y123.141 E10.90878
G1 X127.704 Y123.587 E10.92818
G1 X127.587 Y123.704 E10.93368
G1 X127.191 Y124.043 E10.95102
G1 X126.749 Y124.318 E10.96833
G1 X126.269 Y124.522 E10.98568
G1 X125.764 Y124.65 E11.00301
G1 X125.183 Y124.7 E11.0224
G1 X109.817 Y124.7 E11.53348
G1 X109.297 Y124.66 E11.55083
G1 X108.79 Y124.541 E11.56815
G1 X108.307 Y124.346 E11.58547
G1 X107.859 Y124.08 E11.6028
G1 X107.413 Y123.704 E11.6222
G1 X107.296 Y123.587 E11.62771
G1 X106.957 Y123.191 E11.64504
G1 X106.682 Y122.749 E11.66236
G1 X106.478 Y122.269 E11.6797
G1 X106.35 Y121.764 E11.69703
G1 X106.3 Y121.183 E11.71643
G1 X106.3 Y113.817 E11.96142
G1 X106.34 Y113.297 E11.97877
G1 X106.459 Y112.79 E11.99609
G1 X106.654 Y112.307 E12.01341
G1 X106.92 Y111.859 E12.03074
G1 X107.296 Y111.413 E12.05015
G1 X107.413 Y111.296 E12.05565
G0 F18000 X107.696 Y111.579
G1 F300 X108.069 Y111.262 E12.07193
G1 X108.489 Y111.01 E12.08822
G1 X108.944 Y110.83 E12.10449
G1 X109.422 Y110.726 E12.12077
G1 X109.817 Y110.7 E12.13393
G1 X125.183 Y110.7 E12.64501
G1 X125.671 Y110.74 E12.66129
G1 X126.146 Y110.859 E12.67758
G1 X126.595 Y111.053 E12.69385
G1 X127.007 Y111.318 E12.71014
G1 X127.304 Y111.579 E12.72329
G1 X127.421 Y111.696 E12.72879
G1 X127.738 Y112.069 E12.74507
G1 X127.99 Y112.489 E12.76137
G1 X128.17 Y112.944 E12.77764
G1 X128.274 Y113.422 E12.79391
G1 X128.3 Y113.817 E12.80708
G1 X128.3 Y121.183 E13.05207
G1 X128.26 Y121.671 E13.06836
G1 X128.141 Y122.146 E13.08464
G1 X127.947 Y122.595 E13.10091
G1 X127.682 Y123.007 E13.1172
G1 X127.421 Y123.304 E13.13035
G1 X127.304 Y123.421 E13.13586
G1 X126.931 Y123.738 E13.15214
G1 X126.511 Y123.99 E13.16843
G1 X126.056 Y124.17 E13.1847
G1 X125.578 Y124.274 E13.20097
G1 X125.183 Y124.3 E13.21414
G1 X109.817 Y124.3 E13.72522
G1 X109.329 Y124.26 E13.7415
G1 X108.854 Y124.141 E13.75779
G1 X108.405 Y123.947 E13.77406
G1 X107.993 Y123.682 E13.79035
G1 X107.696 Y123.421 E13.8035
G1 X107.579 Y123.304 E13.809
G1 X107.262 Y122.931 E13.82528
G1 X107.01 Y122.511 E13.84158
G1 X106.83 Y122.056 E13.85785
G1 X106.726 Y121.578 E13.87412
G1 X106.7 Y121.183 E13.88729
G1 X106.7 Y113.817 E14.13228
G1 X106.74 Y113.329 E14.14857
G1 X106.859 Y112.854 E14.16485
G1 X107.053 Y112.405 E14.18112
G1 X107.318 Y111.993 E14.19741
G1 X107.579 Y111.696 E14.21056
G1 X107.696 Y111.579 E14.21607
G0 F18000 X107.979 Y111.862
G1 F300 X108.328 Y111.569 E14.23122
G1 X108.723 Y111.342 E14.24638
G1 X109.151 Y111.187 E14.26152
G1 X109.817 Y111.1 E14.28386
G1 X125.183 Y111.1 E14.79493
G1 X125.637 Y111.14 E14.81009
G1 X126.077 Y111.258 E14.82524
G1 X126.489 Y111.452 E14.84039
G1 X127.021 Y111.862 E14.86273
G1 X127.138 Y111.979 E14.86823
G1 X127.431 Y112.328 E14.88339
G1 X127.658 Y112.723 E14.89854
G1 X127.813 Y113.151 E14.91368
G1 X127.9 Y113.817 E14.93602
G1 X127.9 Y121.183 E15.18101
G1 X127.86 Y121.637 E15.19617
G1 X127.742 Y122.077 E15.21132
G1 X127.548 Y122.489 E15.22647
G1 X127.138 Y123.021 E15.24881
G1 X127.021 Y123.138 E15.25431
G1 X126.672 Y123.431 E15.26947
G1 X126.277 Y123.658 E15.28462
G1 X125.849 Y123.813 E15.29976
G1 X125.183 Y123.9 E15.3221
G1 X109.817 Y123.9 E15.83318
G1 X109.363 Y123.86 E15.84833
G1 X108.923 Y123.742 E15.86349
G1 X108.511 Y123.548 E15.87863
G1 X107.979 Y123.138 E15.90097
G1 X107.862 Y123.021 E15.90648
G1 X107.569 Y122.672 E15.92163
G1 X107.342 Y122.277 E15.93678
G1 X107.187 Y121.849 E15.95192
G1 X107.1 Y121.183 E15.97426
G1 X107.1 Y113.817 E16.21926
G1 X107.14 Y113.363 E16.23442
G1 X107.258 Y112.923 E16.24957
G1 X107.452 Y112.511 E16.26471
G1 X107.862 Y111.979 E16.28705
G1 X107.979 Y111.862 E16.29256
G0 F18000 X108.261 Y112.144
G1 F300 X108.585 Y111.878 E16.3065
G1 X108.952 Y111.677 E16.32042
G1 X109.352 Y111.55 E16.33438
G1 X109.817 Y111.5 E16.34993
G1 X125.183 Y111.5 E16.86101
G1 X125.6 Y111.54 E16.87494
G1 X126.002 Y111.658 E16.88887
G1 X126.374 Y111.851 E16.90281
G1 X126.739 Y112.144 E16.91838
G1 X126.856 Y112.261 E16.92388
G1 X127.122 Y112.585 E16.93783
G1 X127.323 Y112.952 E16.95174
G1 X127.45 Y113.352 E16.9657
G1 X127.5 Y113.817 E16.98126
G1 X127.5 Y121.183 E17.22625
G1 X127.46 Y121.6 E17.24018
G1 X127.342 Y122.002 E17.25412
G1 X127.149 Y122.374 E17.26806
G1 X126.856 Y122.739 E17.28363
G1 X126.739 Y122.856 E17.28913
G1 X126.415 Y123.122 E17.30307
G1 X126.048 Y123.323 E17.31699
G1 X125.648 Y123.45 E17.33095
G1 X125.183 Y123.5 E17.3465
G1 X109.817 Y123.5 E17.85758
G1 X109.4 Y123.46 E17.87151
G1 X108.998 Y123.342 E17.88545
G1 X108.626 Y123.149 E17.89938
G1 X108.261 Y122.856 E17.91495
G1 X108.144 Y122.739 E17.92046
G1 X107.878 Y122.415 E17.9344
G1 X107.677 Y122.048 E17.94832
G1 X107.55 Y121.648 E17.96227
G1 X107.5 Y121.183 E17.97783
G1 X107.5 Y113.817 E18.22282
G1 X107.54 Y113.4 E18.23676
G1 X107.658 Y112.998 E18.25069
G1 X107.851 Y112.626 E18.26463
G1 X108.144 Y112.261 E18.2802
G1 X108.261 Y112.144 E18.2857
G0 F18000 X108.544 Y112.427
G1 F300 X108.839 Y112.189 E18.29831
G1 X109.177 Y112.018 E18.31091
G1 X109.543 Y111.921 E18.3235
G1 X109.817 Y111.9 E18.33264
G1 X125.183 Y111.9 E18.84372
G1 X125.56 Y111.94 E18.85632
G1 X125.92 Y112.058 E18.86893
G1 X126.247 Y112.248 E18.8815
G1 X126.456 Y112.427 E18.89066
G1 X126.573 Y112.544 E18.89616
G1 X126.811 Y112.839 E18.90877
G1 X126.982 Y113.177 E18.92137
G1 X127.079 Y113.543 E18.93396
G1 X127.1 Y113.817 E18.9431
G1 X127.1 Y121.183 E19.18809
G1 X127.06 Y121.56 E19.2007
G1 X126.942 Y121.92 E19.2133
G1 X126.752 Y122.247 E19.22588
G1 X126.573 Y122.456 E19.23503
G1 X126.456 Y122.573 E19.24054
G1 X126.161 Y122.811 E19.25314
G1 X125.823 Y122.982 E19.26574
G1 X125.457 Y123.079 E19.27834
G1 X125.183 Y123.1 E19.28748
G1 X109.817 Y123.1 E19.79855
G1 X109.44 Y123.06 E19.81116
G1 X109.08 Y122.942 E19.82376
G1 X108.753 Y122.752 E19.83634
G1 X108.544 Y122.573 E19.84549
G1 X108.427 Y122.456 E19.851
G1 X108.189 Y122.161 E19.8636
G1 X108.018 Y121.823 E19.8762
G1 X107.921 Y121.457 E19.88879
G1 X107.9 Y121.183 E19.89793
G1 X107.9 Y113.817 E20.14293
G1 X107.94 Y113.44 E20.15554
G1 X108.058 Y113.08 E20.16814
G1 X108.248 Y112.753 E20.18072
G1 X108.427 Y112.544 E20.18987
G1 X108.544 Y112.427 E20.19537
G0 F18000 X108.827 Y112.71
G1 F300 X109.09 Y112.504 E20.20648
G1 X109.394 Y112.365 E20.2176
G1 X109.817 Y112.3 E20.23184
G1 X125.183 Y112.3 E20.74291
G1 X125.515 Y112.34 E20.75403
G1 X125.827 Y112.457 E20.76512
G1 X126.173 Y112.71 E20.77937
G1 X126.29 Y112.827 E20.78488
G1 X126.496 Y113.09 E20.79599
G1 X126.635 Y113.394 E20.80711
G1 X126.7 Y113.817 E20.82134
G1 X126.7 Y121.183 E21.06633
G1 X126.66 Y121.515 E21.07746
G1 X126.543 Y121.827 E21.08854
G1 X126.29 Y122.173 E21.1028
G1 X126.173 Y122.29 E21.1083
G1 X125.91 Y122.496 E21.11941
G1 X125.606 Y122.635 E21.13053
G1 X125.183 Y122.7 E21.14476
G1 X109.817 Y122.7 E21.65584
G1 X109.485 Y122.66 E21.66696
G1 X109.173 Y122.543 E21.67804
G1 X108.827 Y122.29 E21.6923
G1 X108.71 Y122.173 E21.6978
G1 X108.504 Y121.91 E21.70891
G1 X108.365 Y121.606 E21.72003
G1 X108.3 Y121.183 E21.73427
G1 X108.3 Y113.817 E21.97926
G1 X108.34 Y113.485 E21.99038
G1 X108.457 Y113.173 E22.00146
G1 X108.71 Y112.827 E22.01572
G1 X108.827 Y112.71 E22.02122
G0 F18000 X109.11 Y112.993
G1 F300 X109.336 Y112.824 E22.03061
G1 X109.6 Y112.724 E22.04
G1 X109.817 Y112.7 E22.04726
G1 X125.183 Y112.7 E22.55834
G1 X125.462 Y112.74 E22.56771
G1 X125.719 Y112.856 E22.57709
G1 X125.89 Y112.993 E22.58438
G1 X126.007 Y113.11 E22.58988
G1 X126.176 Y113.336 E22.59927
G1 X126.276 Y113.6 E22.60866
G1 X126.3 Y113.817 E22.61592
