;FLAVOR:Marlin
M117 Time Left 0h09m11s
;TIME:551
;Filament used: 0.129305m
;Layer height: 0.2
;MINX:102.7
;MINY:110.7
;MINZ:0.2
;MAXX:132.3
;MAXY:124.3
;MAXZ:2.4
;POSTPROCESSED
;Generated with Cura_SteamEngine 4.7.1
M82 ;absolute extrusion mode
M201 X500.00 Y500.00 Z100.00 E5000.00 ;Setup machine max acceleration
M203 X500.00 Y500.00 Z10.00 E50.00 ;Setup machine max feedrate
M204 P500.00 R1000.00 T500.00 ;Setup Print/Retract/Travel acceleration
M205 X8.00 Y8.00 Z0.40 E5.00 ;Setup Jerk
M220 S100 ;Reset Feedrate
M221 S100 ;Reset Flowrate


M140 S60 ;Start heating bed
M190 S60 ;Wait for bed to reach temp before proceeding
M104 S225 ;Start heating extruder
M109 S225 ;Wait for extruder to reach temp before proceeding

M300 ;Audio slert
M0 Insert Z Switch ;Pause with message for user
G28 ;Home all axes
M420 S1 ;Enable Mesh Bed Levelling
G1 Y-235 Z40 F1500 ;Move Heat Bed back and lift nozzle

M300 ;Audio slert
M0 Remove Z Switch ;Pause with message for user
G1 Z15 F100 ;Slowly lower the nozzle to give you a headsup that printing is starting



G92 E0 ;Reset Extruder
G1 Z2.0 F3000 ;Move Z Axis up
G1 X10.1 Y20 Z0.28 F5000.0 ;Move to start position
G1 X10.1 Y200.0 Z0.28 F1500.0 E15 ;Draw the first line
G1 X10.4 Y200.0 Z0.28 F5000.0 ;Move to side a little
G1 X10.4 Y20 Z0.28 F1500.0 E30 ;Draw the second line
G92 E0 ;Reset Extruder
G1 Z2.0 F3000 ;Move Z Axis up
G92 E0
G92 E0
G1 F3000 E-3
;LAYER_COUNT:12
;LAYER:0
M107
M204 S500
M205 X8 Y8
G0 F18000 X103.696 Y111.579 Z0.2
;TYPE:SKIRT
G1 F3000 E0
G1 F300 X104.069 Y111.262 E0.01628
G1 X104.489 Y111.01 E0.03257
G1 X104.944 Y110.83 E0.04885
G1 X105.422 Y110.726 E0.06512
G1 X105.817 Y110.7 E0.07828
G1 X129.183 Y110.7 E0.85544
G1 X129.671 Y110.74 E0.87172
G1 X130.146 Y110.859 E0.88801
G1 X130.595 Y111.053 E0.90428
G1 X131.007 Y111.318 E0.92057
G1 X131.304 Y111.579 E0.93372
G1 X131.421 Y111.696 E0.93923
G1 X131.738 Y112.069 E0.95551
G1 X131.99 Y112.489 E0.9718
G1 X132.17 Y112.944 E0.98807
G1 X132.274 Y113.422 E1.00434
G1 X132.3 Y113.817 E1.01751
G1 X132.3 Y121.183 E1.2625
G1 X132.26 Y121.671 E1.27879
G1 X132.141 Y122.146 E1.29508
G1 X131.947 Y122.595 E1.31134
G1 X131.682 Y123.007 E1.32764
G1 X131.421 Y123.304 E1.34079
G1 X131.304 Y123.421 E1.34629
G1 X130.931 Y123.738 E1.36257
G1 X130.511 Y123.99 E1.37886
G1 X130.056 Y124.17 E1.39514
G1 X129.578 Y124.274 E1.41141
G1 X129.183 Y124.3 E1.42457
G1 X105.817 Y124.3 E2.20173
G1 X105.329 Y124.26 E2.21802
G1 X104.854 Y124.141 E2.2343
G1 X104.405 Y123.947 E2.25057
G1 X103.993 Y123.682 E2.26686
G1 X103.696 Y123.421 E2.28001
G1 X103.579 Y123.304 E2.28552
G1 X103.262 Y122.931 E2.3018
G1 X103.01 Y122.511 E2.31809
G1 X102.83 Y122.056 E2.33436
G1 X102.726 Y121.578 E2.35063
G1 X102.7 Y121.183 E2.3638
G1 X102.7 Y113.817 E2.60879
G1 X102.74 Y113.329 E2.62508
G1 X102.859 Y112.854 E2.64137
G1 X103.053 Y112.405 E2.65763
G1 X103.318 Y111.993 E2.67393
G1 X103.579 Y111.696 E2.68708
G1 X103.696 Y111.579 E2.69258
G0 F18000 X103.979 Y111.862
G1 F300 X104.328 Y111.569 E2.70774
G1 X104.723 Y111.342 E2.72289
G1 X105.151 Y111.187 E2.73803
G1 X105.817 Y111.1 E2.76037
G1 X129.183 Y111.1 E3.53753
G1 X129.637 Y111.14 E3.55269
G1 X130.077 Y111.258 E3.56784
G1 X130.489 Y111.452 E3.58298
G1 X131.021 Y111.862 E3.60532
G1 X131.138 Y111.979 E3.61083
G1 X131.431 Y112.328 E3.62598
G1 X131.658 Y112.723 E3.64113
G1 X131.813 Y113.151 E3.65627
G1 X131.9 Y113.817 E3.67861
G1 X131.9 Y121.183 E3.92361
G1 X131.86 Y121.637 E3.93877
G1 X131.742 Y122.077 E3.95392
G1 X131.548 Y122.489 E3.96906
G1 X131.138 Y123.021 E3.9914
G1 X131.021 Y123.138 E3.99691
G1 X130.672 Y123.431 E4.01206
G1 X130.277 Y123.658 E4.02722
G1 X129.849 Y123.813 E4.04236
G1 X129.183 Y123.9 E4.0647
G1 X105.817 Y123.9 E4.84185
G1 X105.363 Y123.86 E4.85701
G1 X104.923 Y123.742 E4.87216
G1 X104.511 Y123.548 E4.88731
G1 X103.979 Y123.138 E4.90965
G1 X103.862 Y123.021 E4.91515
G1 X103.569 Y122.672 E4.93031
G1 X103.342 Y122.277 E4.94546
G1 X103.187 Y121.849 E4.9606
G1 X103.1 Y121.183 E4.98294
G1 X103.1 Y113.817 E5.22793
G1 X103.14 Y113.363 E5.24309
G1 X103.258 Y112.923 E5.25824
G1 X103.452 Y112.511 E5.27339
G1 X103.862 Y111.979 E5.29573
G1 X103.979 Y111.862 E5.30123
G0 F18000 X104.261 Y112.144
G1 F300 X104.585 Y111.878 E5.31518
G1 X104.952 Y111.677 E5.32909
G1 X105.352 Y111.55 E5.34305
G1 X105.817 Y111.5 E5.35861
G1 X129.183 Y111.5 E6.13576
G1 X129.6 Y111.54 E6.1497
G1 X130.002 Y111.658 E6.16363
G1 X130.374 Y111.851 E6.17757
G1 X130.739 Y112.144 E6.19314
G1 X130.856 Y112.261 E6.19864
G1 X131.122 Y112.585 E6.21258
G1 X131.323 Y112.952 E6.2265
G1 X131.45 Y113.352 E6.24046
G1 X131.5 Y113.817 E6.25601
G1 X131.5 Y121.183 E6.50101
G1 X131.46 Y121.6 E6.51494
G1 X131.342 Y122.002 E6.52888
G1 X131.149 Y122.374 E6.54282
G1 X130.856 Y122.739 E6.55838
G1 X130.739 Y122.856 E6.56389
G1 X130.415 Y123.122 E6.57783
G1 X130.048 Y123.323 E6.59175
G1 X129.648 Y123.45 E6.6057
G1 X129.183 Y123.5 E6.62126
G1 X105.817 Y123.5 E7.39842
G1 X105.4 Y123.46 E7.41235
G1 X104.998 Y123.342 E7.42628
G1 X104.626 Y123.149 E7.44022
G1 X104.261 Y122.856 E7.45579
G1 X104.144 Y122.739 E7.46129
G1 X103.878 Y122.415 E7.47524
G1 X103.677 Y122.048 E7.48915
G1 X103.55 Y121.648 E7.50311
G1 X103.5 Y121.183 E7.51867
G1 X103.5 Y113.817 E7.76366
G1 X103.54 Y113.4 E7.77759
G1 X103.658 Y112.998 E7.79153
G1 X103.851 Y112.626 E7.80547
G1 X104.144 Y112.261 E7.82104
G1 X104.261 Y112.144 E7.82654
G0 F18000 X104.544 Y112.427
G1 F300 X104.839 Y112.189 E7.83915
G1 X105.177 Y112.018 E7.85174
G1 X105.543 Y111.921 E7.86434
G1 X105.817 Y111.9 E7.87348
G1 X129.183 Y111.9 E8.65063
G1 X129.56 Y111.94 E8.66324
G1 X129.92 Y112.058 E8.67584
G1 X130.247 Y112.248 E8.68842
G1 X130.456 Y112.427 E8.69758
G1 X130.573 Y112.544 E8.70308
G1 X130.811 Y112.839 E8.71569
G1 X130.982 Y113.177 E8.72828
G1 X131.079 Y113.543 E8.74088
G1 X131.1 Y113.817 E8.75002
G1 X131.1 Y121.183 E8.99501
G1 X131.06 Y121.56 E9.00762
G1 X130.942 Y121.92 E9.02022
G1 X130.752 Y122.247 E9.0328
G1 X130.573 Y122.456 E9.04195
G1 X130.456 Y122.573 E9.04746
G1 X130.161 Y122.811 E9.06006
G1 X129.823 Y122.982 E9.07266
G1 X129.457 Y123.079 E9.08526
G1 X129.183 Y123.1 E9.0944
G1 X105.817 Y123.1 E9.87155
G1 X105.44 Y123.06 E9.88416
G1 X105.08 Y122.942 E9.89676
G1 X104.753 Y122.752 E9.90934
G1 X104.544 Y122.573 E9.91849
G1 X104.427 Y122.456 E9.924
G1 X104.189 Y122.161 E9.9366
G1 X104.018 Y121.823 E9.9492
G1 X103.921 Y121.457 E9.9618
G1 X103.9 Y121.183 E9.97094
G1 X103.9 Y113.817 E10.21593
G1 X103.94 Y113.44 E10.22854
G1 X104.058 Y113.08 E10.24114
G1 X104.248 Y112.753 E10.25372
G1 X104.427 Y112.544 E10.26287
G1 X104.544 Y112.427 E10.26837
G0 F18000 X104.827 Y112.71
G1 F300 X105.09 Y112.504 E10.27948
G1 X105.394 Y112.365 E10.2906
G1 X105.817 Y112.3 E10.30484
G1 X129.183 Y112.3 E11.08199
G1 X129.515 Y112.34 E11.09312
G1 X129.827 Y112.457 E11.1042
G1 X130.173 Y112.71 E11.11845
G1 X130.29 Y112.827 E11.12396
G1 X130.496 Y113.09 E11.13507
G1 X130.635 Y113.394 E11.14619
G1 X130.7 Y113.817 E11.16042
G1 X130.7 Y121.183 E11.40542
G1 X130.66 Y121.515 E11.41654
G1 X130.543 Y121.827 E11.42762
G1 X130.29 Y122.173 E11.44188
G1 X130.173 Y122.29 E11.44738
G1 X129.91 Y122.496 E11.45849
G1 X129.606 Y122.635 E11.46961
G1 X129.183 Y122.7 E11.48384
G1 X105.817 Y122.7 E12.261
G1 X105.485 Y122.66 E12.27212
G1 X105.173 Y122.543 E12.28321
G1 X104.827 Y122.29 E12.29746
G1 X104.71 Y122.173 E12.30296
G1 X104.504 Y121.91 E12.31408
G1 X104.365 Y121.606 E12.32519
G1 X104.3 Y121.183 E12.33943
G1 X104.3 Y113.817 E12.58442
G1 X104.34 Y113.485 E12.59554
G1 X104.457 Y113.173 E12.60663
G1 X104.71 Y112.827 E12.62088
G1 X104.827 Y112.71 E12.62639
G0 F18000 X105.11 Y112.993
G1 F300 X105.336 Y112.824 E12.63577
G1 X105.6 Y112.724 E12.64516
G1 X105.817 Y112.7 E12.65242
G1 X129.183 Y112.7 E13.42958
G1 X129.462 Y112.74 E13.43895
G1 X129.719 Y112.856 E13.44833
G1 X129.89 Y112.993 E13.45562
G1 X130.007 Y113.11 E13.46112
G1 X130.176 Y113.336 E13.47051
G1 X130.276 Y113.6 E13.4799
G1 X130.3 Y113.817 E13.48716
G1 X130.3 Y121.183 E13.73216
G1 X130.26 Y121.462 E13.74153
G1 X130.144 Y121.719 E13.75091
G1 X130.007 Y121.89 E13.7582
G1 X129.89 Y122.007 E13.7637
G1 X129.664 Y122.176 E13.77308
G1 X129.4 Y122.276 E13.78247
G1 X129.183 Y122.3 E13.78974
G1 X105.817 Y122.3 E14.56689
G1 X105.538 Y122.26 E14.57627
G1 X105.281 Y122.144 E14.58564
G1 X105.11 Y122.007 E14.59293
G1 X104.993 Y121.89 E14.59844
G1 X104.824 Y121.664 E14.60782
G1 X104.724 Y121.4 E14.61721
G1 X104.7 Y121.183 E14.62447
G1 X104.7 Y113.817 E14.86947
G1 X104.74 Y113.538 E14.87884
G1 X104.856 Y113.281 E14.88822
G1 X104.993 Y113.11 E14.89551
G1 X105.11 Y112.993 E14.90101
G0 F18000 X105.393 Y113.276
G1 F300 X105.572 Y113.152 E14.90825
G1 X105.817 Y113.1 E14.91658
G1 X129.183 Y113.1 E15.69374
G1 X129.398 Y113.14 E15.70101
G1 X129.607 Y113.276 E15.70931
G1 X129.724 Y113.393 E15.71481
G1 X129.848 Y113.572 E15.72205
G1 X129.9 Y113.817 E15.73038
G1 X129.9 Y121.183 E15.97538
G1 X129.86 Y121.398 E15.98265
G1 X129.724 Y121.607 E15.99094
G1 X129.607 Y121.724 E15.99645
G1 X129.428 Y121.848 E16.00369
G1 X129.183 Y121.9 E16.01202
G1 X105.817 Y121.9 E16.78918
G1 X105.602 Y121.86 E16.79645
G1 X105.393 Y121.724 E16.80474
G1 X105.276 Y121.607 E16.81025
G1 X105.152 Y121.428 E16.81749
G1 X105.1 Y121.183 E16.82582
G1 X105.1 Y113.817 E17.07081
G1 X105.14 Y113.602 E17.07809
G1 X105.276 Y113.393 E17.08638
G1 X105.393 Y113.276 E17.09188
G0 F18000 X105.676 Y113.559
G1 F300 X105.817 Y113.5 E17.09697
G1 X129.183 Y113.5 E17.87412
G1 X129.324 Y113.559 E17.87921
G1 X129.441 Y113.676 E17.88471
G1 X129.5 Y113.817 E17.8898
G1 X129.5 Y121.183 E18.13479
G1 X129.441 Y121.324 E18.13987
G1 X129.324 Y121.441 E18.14538
G1 X129.183 Y121.5 E18.15046
G1 X105.817 Y121.5 E18.92762
G1 X105.676 Y121.441 E18.9327
G1 X105.559 Y121.324 E18.9382
G1 X105.5 Y121.183 E18.94329
G1 X105.5 Y113.817 E19.18828
G1 X105.559 Y113.676 E19.19337
G1 X105.676 Y113.559 E19.19887
G1 F3000 E16.19887
;MESH:3x1.stl
G0 F18000 X106.114 Y114.114
G0 X128.83 Y114.2
G0 X129.1 Y113.9
;TYPE:WALL-OUTER
G1 F3000 E19.19887
G1 F300 X129.1 Y121.1 E19.43834
G1 X105.9 Y121.1 E20.20998
G1 X105.9 Y113.9 E20.44945
G1 X129.1 Y113.9 E21.22108
G0 F18000 X128.83 Y114.17
G0 X106.3 Y114.3
;TYPE:WALL-INNER
G1 F300 X128.7 Y114.3 E21.96611
G1 X128.7 Y120.7 E22.17898
G1 X106.3 Y120.7 E22.924
G1 X106.3 Y114.3 E23.13687
G0 F18000 X106.7 Y114.7
G1 F300 X128.3 Y114.7 E23.85529
G1 X128.3 Y120.3 E24.04154
G1 X106.7 Y120.3 E24.75996
G1 X106.7 Y114.7 E24.94622
G0 F18000 X107.09 Y115.09
;TYPE:SKIN
G1 F300 X127.91 Y115.09 E25.6387
G1 X127.91 Y119.91 E25.79901
G1 X107.09 Y119.91 E26.49149
G1 X107.09 Y115.09 E26.6518
G0 F18000 X107.09 Y114.81
G0 X106.882 Y114.882
G0 X106.882 Y120.118
G0 X107.869 Y120.19
G0 X107.869 Y119.749
G1 F300 X107.25 Y119.129 E26.68094
G0 F18000 X107.25 Y118.564
G1 F300 X108.435 Y119.749 E26.73668
G0 F18000 X109.001 Y119.749
G1 F300 X107.25 Y117.998 E26.81904
G0 F18000 X107.25 Y117.432
G1 F300 X109.566 Y119.749 E26.928
G0 F18000 X110.132 Y119.749
G1 F300 X107.25 Y116.867 E27.06356
G0 F18000 X107.25 Y116.301
G1 F300 X110.698 Y119.749 E27.22574
G0 F18000 X111.263 Y119.749
G1 F300 X107.25 Y115.735 E27.41453
G0 F18000 X107.33 Y115.249
G1 F300 X111.829 Y119.749 E27.62617
G0 F18000 X112.395 Y119.749
G1 F300 X107.896 Y115.249 E27.83781
G0 F18000 X108.461 Y115.249
G1 F300 X112.961 Y119.749 E28.04948
G0 F18000 X113.526 Y119.749
G1 F300 X109.027 Y115.249 E28.26112
G0 F18000 X109.593 Y115.249
G1 F300 X114.092 Y119.749 E28.47276
G0 F18000 X114.658 Y119.749
G1 F300 X110.158 Y115.249 E28.68443
G0 F18000 X110.724 Y115.249
G1 F300 X115.223 Y119.749 E28.89607
G0 F18000 X115.789 Y119.749
G1 F300 X111.29 Y115.249 E29.10772
G0 F18000 X111.855 Y115.249
G1 F300 X116.355 Y119.749 E29.31938
G0 F18000 X116.92 Y119.749
G1 F300 X112.421 Y115.249 E29.53102
G0 F18000 X112.987 Y115.249
G1 F300 X117.486 Y119.749 E29.74267
G0 F18000 X118.052 Y119.749
G1 F300 X113.552 Y115.249 E29.95433
G0 F18000 X114.118 Y115.249
G1 F300 X118.617 Y119.749 E30.16598
G0 F18000 X119.183 Y119.749
G1 F300 X114.684 Y115.249 E30.37762
G0 F18000 X115.249 Y115.249
G1 F300 X119.749 Y119.749 E30.58928
G0 F18000 X120.314 Y119.749
G1 F300 X115.815 Y115.249 E30.80093
G0 F18000 X116.381 Y115.249
G1 F300 X120.88 Y119.749 E31.01257
G0 F18000 X121.446 Y119.749
G1 F300 X116.946 Y115.249 E31.22424
G0 F18000 X117.512 Y115.249
G1 F300 X122.011 Y119.749 E31.43588
G0 F18000 X122.577 Y119.749
G1 F300 X118.078 Y115.249 E31.64752
G0 F18000 X118.644 Y115.249
G1 F300 X123.143 Y119.749 E31.85916
G0 F18000 X123.709 Y119.749
G1 F300 X119.209 Y115.249 E32.07083
G0 F18000 X119.775 Y115.249
G1 F300 X124.274 Y119.749 E32.28247
G0 F18000 X124.84 Y119.749
G1 F300 X120.341 Y115.249 E32.49412
G0 F18000 X120.906 Y115.249
G1 F300 X125.406 Y119.749 E32.70578
G0 F18000 X125.971 Y119.749
G1 F300 X121.472 Y115.249 E32.91742
G0 F18000 X122.038 Y115.249
G1 F300 X126.537 Y119.749 E33.12907
G0 F18000 X127.103 Y119.749
G1 F300 X122.603 Y115.249 E33.34073
G0 F18000 X123.169 Y115.249
G1 F300 X127.668 Y119.749 E33.55238
G0 F18000 X127.748 Y119.263
G1 F300 X123.735 Y115.249 E33.74116
G0 F18000 X124.3 Y115.249
G1 F300 X127.748 Y118.697 E33.90334
G0 F18000 X127.748 Y118.132
G1 F300 X124.866 Y115.249 E34.03893
G0 F18000 X125.432 Y115.249
G1 F300 X127.748 Y117.566 E34.14789
G0 F18000 X127.748 Y117
G1 F300 X125.997 Y115.249 E34.23025
G0 F18000 X126.563 Y115.249
G1 F300 X127.748 Y116.435 E34.28601
G0 F18000 X127.748 Y115.869
G1 F300 X127.129 Y115.249 E34.31515
M104 S225
G0 F18000 X127.129 Y114.51
G1 F3000 E31.31515
;MESH:NONMESH
G0 F300 X127.129 Y114.51 Z0.4
G0 F18000 X128.3 Y114.7
M117 Time Left 0h05m35s
;TIME_ELAPSED:215.787281
;LAYER:1
M106 S8.5
;TYPE:WALL-INNER
;MESH:3x1.stl
G1 F3000 E34.31515
G1 F450 X128.3 Y120.3 E34.50141
G1 X106.7 Y120.3 E35.21983
G1 X106.7 Y114.7 E35.40608
G1 X128.3 Y114.7 E36.1245
G0 F18000 X128.7 Y114.3
G1 F450 X128.7 Y120.7 E36.33737
G1 X106.3 Y120.7 E37.08239
G1 X106.3 Y114.3 E37.29526
G1 X128.7 Y114.3 E38.04029
G0 F18000 X129.1 Y113.9
;TYPE:WALL-OUTER
G1 F450 X129.1 Y121.1 E38.27976
G1 X105.9 Y121.1 E39.05139
G1 X105.9 Y113.9 E39.29087
G1 X129.1 Y113.9 E40.0625
G0 F18000 X128.83 Y114.17
G0 X127.91 Y114.81
G0 X127.91 Y115.09
;TYPE:SKIN
G1 F450 X127.91 Y119.91 E40.22282
G1 X107.09 Y119.91 E40.91529
G1 X107.09 Y115.09 E41.07561
G1 X127.91 Y115.09 E41.76808
G0 F18000 X127.91 Y114.81
G0 X128.097 Y114.874
G0 X128.19 Y119.455
G0 X127.748 Y119.455
G1 F450 X127.454 Y119.749 E41.78191
G0 F18000 X126.888 Y119.749
G1 F450 X127.748 Y118.89 E41.82234
G0 F18000 X127.748 Y118.324
G1 F450 X126.323 Y119.749 E41.88937
G0 F18000 X125.757 Y119.749
G1 F450 X127.748 Y117.758 E41.98302
G0 F18000 X127.748 Y117.193
G1 F450 X125.191 Y119.749 E42.10327
G0 F18000 X124.626 Y119.749
G1 F450 X127.748 Y116.627 E42.25012
G0 F18000 X127.748 Y116.061
G1 F450 X124.06 Y119.749 E42.42359
G0 F18000 X123.494 Y119.749
G1 F450 X127.748 Y115.495 E42.62368
G0 F18000 X127.429 Y115.249
G1 F450 X122.929 Y119.749 E42.83535
G0 F18000 X122.363 Y119.749
G1 F450 X126.864 Y115.249 E43.04704
G0 F18000 X126.298 Y115.249
G1 F450 X121.797 Y119.749 E43.25873
G0 F18000 X121.232 Y119.749
G1 F450 X125.732 Y115.249 E43.4704
G0 F18000 X125.167 Y115.249
G1 F450 X120.666 Y119.749 E43.68209
G0 F18000 X120.1 Y119.749
G1 F450 X124.601 Y115.249 E43.89378
G0 F18000 X124.035 Y115.249
G1 F450 X119.534 Y119.749 E44.10546
G0 F18000 X118.969 Y119.749
G1 F450 X123.47 Y115.249 E44.31715
G0 F18000 X122.904 Y115.249
G1 F450 X118.403 Y119.749 E44.52884
G0 F18000 X117.837 Y119.749
G1 F450 X122.338 Y115.249 E44.74053
G0 F18000 X121.772 Y115.249
G1 F450 X117.272 Y119.749 E44.9522
G0 F18000 X116.706 Y119.749
G1 F450 X121.207 Y115.249 E45.16389
G0 F18000 X120.641 Y115.249
G1 F450 X116.14 Y119.749 E45.37558
G0 F18000 X115.575 Y119.749
G1 F450 X120.075 Y115.249 E45.58725
G0 F18000 X119.51 Y115.249
G1 F450 X115.009 Y119.749 E45.79894
G0 F18000 X114.443 Y119.749
G1 F450 X118.944 Y115.249 E46.01063
G0 F18000 X118.378 Y115.249
G1 F450 X113.878 Y119.749 E46.22229
G0 F18000 X113.312 Y119.749
G1 F450 X117.813 Y115.249 E46.43398
G0 F18000 X117.247 Y115.249
G1 F450 X112.746 Y119.749 E46.64567
G0 F18000 X112.181 Y119.749
G1 F450 X116.681 Y115.249 E46.85734
